X:1
T:Title
%%score { 1 | 2 }
L:1/8
M:3/4
K:Ab
V:1 treble nm="Grand Piano"
V:2 bass 
V:1
 z2 z2[Q:1/4=100] [Ec][DB] | [CA]2 [CE]2 [EA][EG] | [EG]2 [DF]2 [EB][Ec] | [Ed]3 G AB | %4
[M:2/4] [Ec]4 |[M:1/4] [Ec][DB] |[M:3/4] [CA]2 [CE]2 [EA][EG] | [EG]2 [DF]2 [DB][Ec] | %8
 [Fd]3 [DF] GB |[M:2/4] [CA]4 |[M:1/4] AG |[M:3/4] F3 =E FA | G2 C2 AG | F3 =E F[=DA] | %14
[M:5/8] GB d3 |[M:1/4] cB |[M:3/4] [CA]2 [CE]2 [EA][EG] | [EG]2 [DF]2 [DB][Fc] | %18
 [Fe]3 [Fd] [DEG][DEB] |[M:2/4] [CEA]4 |] %20
V:2
 z2 z2 [A,,A,][A,,E,] | [A,,E,]2 [A,,A,]2 [C,E,][C,E,] | [D,A,]2 [D,A,]2 [D,G,][C,A,] | %3
 [B,,G,]3 [E,DE] [E,CE][E,G,E] |[M:2/4] [A,,A,]4 |[M:1/4] [A,,A,][A,,E,] | %6
[M:3/4] [A,,E,]2 [A,,A,]2 [C,E,][C,E,] | [D,A,]2 [D,A,]2 [D,F,][C,A,] | %8
 [B,,A,]3 [B,,A,] [E,B,D][E,D] |[M:2/4] [A,,E,]4 |[M:1/4] [C,F,C][C,G,C] | %11
[M:3/4] [F,A,C]3 [G,C] [F,A,C][F,C] | [C,=E,C]2 [C,E,]2 [C,F,C][C,B,C] | %13
 [F,A,C]3 [G,C] [F,A,C][B,,B,] |[M:5/8] [E,B,E]-[E,B,E]- [E,B,E]3 |[M:1/4] [E,A,E][E,D] | %16
[M:3/4] [A,,E,]2 [A,,A,]2 [C,A,][C,E,] | [D,A,]2 [D,A,]2 [D,A,][C,A,] | [B,,B,]3 [B,,B,] E,E, | %19
[M:2/4] A,,4 |] %20

